X: 10964
T: Drumnagarry
R: strathspey
M: 4/4
K: Gmajor
G,3 A, B,<DG>D|E>A, (3A,G,A, G>A,F>A|G>G, G,/G,/G, B,<DG>D|F>AD>F G>AB>A|
G,3 A, B,<DG>D|E>A, (3A,G,A, G>A,F>A|G>G, G,/G,/G, B,<DG>D|F>AD>A B<G G2||
B<GB>d g<dB>d|B<cc>B A.Bc>d|B<GB>d g<dB>G|E/F/G A>c B<GG>c|
B<GB>d g<dB>d|c>dB>c A>Bc>e|d>Bc>A B<GA>G|E>GF>A B<G G2||

